public/home/dao-it/icons/bankless.svg

<svg width="73" height="73" viewBox="0 0 73 73" fill="none" xmlns="http://www.w3.org/2000/svg">
<circle cx="36.5" cy="36.5" r="36.5" fill="#DFE225"/>
<g clip-path="url(#clip0_2628_195)">
<path d="M48.3886 35.8916C48.3886 38.9916 47.3187 41.2606 45.1809 42.6987C43.0432 44.1367 40.0745 44.8558 36.277 44.8558H24.6133V13.916H35.5817C39.5579 13.916 42.4082 14.493 44.1282 15.649C45.8483 16.805 46.7073 18.6328 46.7073 21.1386C46.7073 23.061 46.2401 24.6196 45.3058 25.8123C44.3715 27.0049 42.9098 27.8014 40.9206 28.204C43.5233 28.5614 45.4177 29.3816 46.6061 30.6625C47.7944 31.9455 48.3886 33.6893 48.3886 35.8937V35.8916ZM40.3135 22.5228C40.3135 21.3453 39.8786 20.5294 39.0132 20.0751C38.1457 19.6209 36.8002 19.3927 34.9768 19.3927H30.9403V26.0319H34.7981C36.6667 26.0319 38.0531 25.7714 38.9594 25.2504C39.8636 24.7294 40.3157 23.8188 40.3157 22.5228H40.3135ZM41.9281 35.334C41.9281 33.9476 41.4566 32.9681 40.5159 32.3933C39.5729 31.8207 37.8098 31.5322 35.2222 31.5322H30.9382V39.2672H34.1458C36.6129 39.2672 38.3136 39.1488 39.2479 38.9098C40.1822 38.6708 40.8625 38.2683 41.2887 37.7021C41.715 37.1359 41.9281 36.3458 41.9281 35.3319V35.334Z" fill="#242424"/>
<path d="M48.5 53.084H24.5V59.084H48.5V53.084Z" fill="#242424"/>
</g>
<defs>
<clipPath id="clip0_2628_195">
<rect width="25" height="47" fill="white" transform="translate(24 13)"/>
</clipPath>
</defs>
</svg>

<svg viewBox="0 0 73 73" fill="none" xmlns="http://www.w3.org/2000/svg"><circle cx="36.5" cy="36.5" r="36.5" fill="#DFE225"/><g clip-path="url(#a)" fill="#242424"><path d="M48.389 35.892q0 4.65-3.208 6.807-3.207 2.157-8.904 2.157H24.613v-30.94h10.969q5.965 0 8.546 1.733t2.58 5.49q0 2.883-1.402 4.673t-4.385 2.392q3.903.536 5.685 2.459t1.783 5.23zm-8.076-13.37q0-1.766-1.3-2.447t-4.036-.682H30.94v6.639h3.858q2.803 0 4.161-.782t1.357-2.727zm1.615 12.812q0-2.079-1.412-2.94-1.413-.86-5.294-.862h-4.284v7.735h3.208q3.7 0 5.102-.357 1.401-.36 2.04-1.208.64-.849.64-2.37zm6.572 17.75h-24v6h24z"/></g><defs><clipPath id="a"><path fill="#fff" d="M24 13h25v47H24z"/></clipPath></defs></svg>
